X: 6660
T: Ceilier, The
R: reel
M: 4/4
K: Gmajor
|:Bc|dGBd cAAc|~B3d gfde|c2de ed e/f/g|fdcB cAAc|
~B3A ~G3B|DGBd cAAc|d3e fdeg|fdcA G2:|
|:Bc|dgbg ~g2bg|~g2bg dcBc|de=fe d3c|de=fe dcBc|
dg f/g/a g2fg|abag fdde|=f2ed cA~A2|BdcA G2:|

